cssgg/media-podcast.svg

<svg
  width="24"
  height="24"
  viewBox="0 0 24 24"
  fill="none"
  xmlns="http://www.w3.org/2000/svg"
>
  <path
    d="M5.6361 20.364C4.00738 18.7353 3 16.4853 3 14C3 9.02944 7.02944 5 12 5C16.9706 5 21 9.02944 21 14C21 16.4853 19.9926 18.7353 18.364 20.3639L19.7782 21.7782C21.7688 19.7875 23 17.0376 23 14C23 7.92487 18.0751 3 12 3C5.92487 3 1 7.92487 1 14C1 17.0376 2.23124 19.7876 4.22189 21.7782L5.6361 20.364Z"
    fill="currentColor"
  />
  <path
    d="M16.9498 18.9497C18.2165 17.683 19 15.933 19 14C19 10.134 15.866 7 12 7C8.13401 7 5 10.134 5 14C5 15.933 5.78353 17.6831 7.05031 18.9498L8.46453 17.5356C7.55967 16.6308 7 15.3807 7 14C7 11.2386 9.23858 9 12 9C14.7614 9 17 11.2386 17 14C17 15.3807 16.4404 16.6307 15.5356 17.5355L16.9498 18.9497Z"
    fill="currentColor"
  />
  <path
    d="M14.1213 16.1213C14.6642 15.5784 15 14.8284 15 14C15 12.3431 13.6569 11 12 11C10.3431 11 9 12.3431 9 14C9 14.8285 9.33581 15.5785 9.87874 16.1214L11.293 14.7072C11.112 14.5262 11 14.2762 11 14C11 13.4477 11.4477 13 12 13C12.5523 13 13 13.4477 13 14C13 14.2761 12.8881 14.5261 12.7071 14.7071L14.1213 16.1213Z"
    fill="currentColor"
  />
</svg>

<svg viewBox="0 0 24 24" xmlns="http://www.w3.org/2000/svg"><g><path d="M5.63 20.364c-1.63-1.63-2.64-3.88-2.64-6.37 0-4.98 4.02-9 9-9 4.97 0 9 4.02 9 9 0 2.48-1.01 4.73-2.64 6.36l1.41 1.41c1.99-2 3.22-4.75 3.22-7.78 0-6.08-4.93-11-11-11 -6.08 0-11 4.92-11 11 0 3.03 1.23 5.78 3.22 7.77l1.41-1.42Z"/><path d="M16.94 18.94c1.26-1.27 2.05-3.02 2.05-4.95 0-3.87-3.14-7-7-7 -3.87 0-7 3.13-7 7 0 1.93.78 3.68 2.05 4.94l1.41-1.42c-.91-.91-1.47-2.16-1.47-3.54 0-2.77 2.23-5 5-5 2.76 0 5 2.23 5 5 0 1.38-.56 2.63-1.47 3.53l1.41 1.41Z"/><path d="M14.12 16.12c.54-.55.87-1.3.87-2.13 0-1.66-1.35-3-3-3 -1.66 0-3 1.34-3 3 0 .82.33 1.57.87 2.12l1.41-1.42c-.19-.19-.3-.44-.3-.71 0-.56.44-1 1-1 .55 0 1 .44 1 1 0 .27-.12.52-.3.7l1.41 1.41Z"/></g></svg>
